X:1
T:James Gibb editions
T:Thrice-holy Name! - Barnby
%%score [ ( 1 2 3 ) ( 4 5 6 ) ]
L:1/8
Q:1/4=84
M:4/4
K:F
V:1 treble nm="Midi_74"
V:2 treble 
V:3 treble 
V:4 bass nm="Midi_74"
V:5 bass 
V:6 bass 
V:1
"^Nomen Tersanctum (88. 88. 88. 88. 88}""^Francis Turner Palgrave\n(1824-97)""^Thrice-holy Name!""^Joseph Barnby\n(1838-96)"!mf! c2 | %1
 A2 G2 F2 G2 | E3 E F2 || G2 | A2 d2 c2 A2 | F2 GA G2 || c2 |!<(! A2 A2 d2!<)! c2 | c3 B B2 || B2 | %10
 A2 G2 F2 G2 |[M:4/4] A3 G F2 || F2 | F2 G2 A2 B2 | B3 A A2 || A2 | A2 B2 c2 d2 | c3 B B2 || %18
!p! B2 | A2 G2 F2 B2 | A2 E2 F2 || G2 | A2 =B2 c2 d2 | =B6 c2 | c8 ||"^Refrain"!p! c4 c2 c2 | %26
 c2 c2 d2 d2 | c4 ||!<(! c4 | _e2 d2!<)! c2!>(! =B2 | c6 G2!>)! | A6 || B4 A4 |] %33
V:2
 G2 | F2 E2 F2 D2 | C2 C2 C2 || C2 | C2 E2 F2 F2 | F2 F2 E2 || G2 | F2 _E2 D2 ^F2 | G3 G G2 || D2 | %10
w: ||||||||||
 ^C2 E2 F2 F2 |[M:4/4] F2 E2 F2 || F2 | F2 G2 A2 B2 | B3 A A2 || G2 | G2 G2 ^F2 F2 | ^F3 G G2 || %18
w: ||||||||
 D2 | ^C2 E2 D2 D2 | ^C2 E2 D2 || E2 | F2 F2 E2 A2 | G4 F4 | E8 || E4 E2 E2 | F2 F2 D2 E2 | F4 || %28
w: |||||||While at the|bles- sed Name we|bow,|
 F4 | G2 F2 E2 F2 | F4 E4 | F6 || F4 F4 |] %33
w: Lord|Je- sus, be a-|mong us|now!|A- men.|
V:3
 x2 | x8 | x6 || x2 | x8 | x6 || x2 | x8 | x6 || x2 | x8 |[M:4/4] x6 || x2 | D8 | _E6 || _E2 | %16
 D4 D4 | D6 || x2 | x8 | x6 || x2 | x8 | x8 | x8 || x8 | x8 | x4 || x4 | x8 | x8 | x6 || x8 |] %33
V:4
!mf! C2 | C2 B,2 A,2 B,2 | G,2 C2 C2 || B,2 | A,2 B,2 C2 C2 | C2 =B,2 C2 || C2 | C2 C2 A,2 D2 | %8
 D3 D D2 || G,2 | E,2 A,2 A,2 B,2 |[M:4/4] C2 B,2 A,2 || F,2 | F,2 G,2 A,2 B,2 | B,3 A, A,2 || %15
 A,2 | A,2 B,2 C2 D2 | C3 B, B,2 ||!p! G,2 | A,2 A,2 A,2 G,2 | E,2 A,2 A,2 || C2 | C2 D2 C2 F2 | %23
"^1. Thrice-holy name! that sweeter sounds\nThan streams which down the valley run,\nAnd tells of more than human love,\nAnd more than human power, in one:\nFirst from the gracious herald heard,\nHeard since through all the choirs on high;\nO child of Mary, Son of God,\nEternal, hear Thy children’s cry!\n\nR: While at the blessèd name we bow,\nLord Jesus, be among us now!\n\n2. Within our dim-eyed souls call up\nThe vision of Thine earthly years;\nThe mount of the transfigured form;\nThe garden of the bitter tears;\nThe cross upreared in darkening skies;\nThe thorn-wreathed head, the bleeding side;\nAnd whisper in the heart, For you,\nFor you, I left the Heav’ns, and died. R:" D4 G,4 | %24
 G,8 ||!p! G,4 G,2 G,2 | A,2 A,2 F,2 G,2 | %27
"^3. Ah! with faiths inward piercing eye\nThe riven rock-hewn bed we see,\nWhence Thou in triumph hast gone forth\nBy death from death to make us free!\nAnd when on earths last awful day\nThe judgment-seat of God shall shine,\nLift Thou our trembling eyes to read\nIn Thy dear face the mercy-sign. R:\n" A,4 || %28
 A,4 | B,2 B,2 G,2 F,2 | G,4 C4 | C6 || D4 C4 |] %33
V:5
 E,2 | F,2 C,2 D,2 B,,2 | C,2 C,2 D,2 || E,2 | F,2 G,2 A,2 F,2 | D,2 G,2 C,2 || E,2 | %7
 F,2 F,2 ^F,2 D,2 | G,3 G, G,2 || G,,2 | A,,2 ^C,2 D,2 D,2 |[M:4/4] =C,2 C,2 F,2 || F,2 | %13
 F,2 G,2 A,2 B,2 | B,3 A, A,2 || A,2 | D,2 D,2 D,2 D,2 | G,3 G, G,2 || E,2 | A,2 ^C,2 D,2 G,,2 | %20
 A,,2 ^C,2 D,2 || =C,2 | F,2 D,2 A,2 F,2 | G,4 G,4 | C,8 || C,4 C,2 C,2 | F,2 F,2 B,,2 B,,2 | %27
 F,4 || F,4 | _E,2 B,,2 C,2 D,2 | C,4 C,4 | F,6- || B,,4 F,4 |] %33
V:6
 x2 | x8 | x6 || x2 | x8 | x6 || x2 | x8 | x6 || x2 | x8 |[M:4/4] x6 || x2 | B,,8 | C,6 || C,2 | %16
 x8 | x6 || x2 | x8 | x6 || x2 | x8 | x8 | x8 || x8 | x8 | x4 || x4 | x8 | x8 | x6 || x8 |] %33

